X:1
T:Partition sans titre
C:Compositeur / Arrangeur
L:1/8
M:4/4
I:linebreak $
K:C
V:1 treble nm="Violon" snm="Vln."
V:1
 AB |"Am" c2 ce dcBA |"G" G2 GA BGDG | B2"Am" ce dcBA |"G" GBAE EEAB |"Am" c2 ce dcBA | %6
"G" GDDD GABd |"Am" cBAc Bced |1 cBAE EE :|2 cBAE E2 A2 |:"Am" AcAc AcAc |"G" BdBd BdBd |1 %12
"Am" edcB (3Bcd eA :|2"Am" edcB A2 a2 ||"Am7" gfed cBcd | eA g2 fedc |"E" BA^GB e2 dc | BA^GE EE |] %18
